X: 1
T: Pelot d'Hennebont
R: an dro
S: Handout at 2014 NEFFA
Z: 2015 John Chambers <jc:trillian.mit.edu>
M: 2/4
L: 1/16
K: Am
A |\
"Am"A2A2 e3d | e2f2 "C"e3d |\
c2B2 "G"d3c | B2c2 "Em"B3 :|
|: A |\
"Am"A2A2 "G"B3d | B2c2 "Am"A3A |\
"A"A2A2 "G"B3d |1 B2c2 "Am"A3 :|2 "G"edcB "Am"A3 |]
|: A, |\
"Am"A,2A,2 E3D | E2F2 "C"E3D |\
C2B,2 "G"D3C | B,2C2 "Em"B,3 :|
|: A, |\
"Am"A,2A,2 "G"B,3D | B,2C2 "Am"A,3A, |\
A,2A,2 "G"B,3D | B,2C2 "Am"A,3 :|
